Dominus_Dark_Funeral/22/apps/org.kde.plasma.digitalclock-ng.svg

<svg xmlns="http://www.w3.org/2000/svg" width="24" height="24"><path d="M11.51 1a10.966 10.966 0 0 0-4.73 1.007c-1.057.33-1.64 1.38-1.057 2.429a1.658 1.658 0 0 0 2.251.609l.025.042a7.7 7.7 0 0 1 .195-.101 7.7 7.7 0 0 1 .72-.28 7.7 7.7 0 0 1 .735-.211 7.7 7.7 0 0 1 .762-.136 7.7 7.7 0 0 1 .761-.05 7.7 7.7 0 0 1 .77.017 7.7 7.7 0 0 1 .762.101 7.7 7.7 0 0 1 .762.17 7.7 7.7 0 0 1 .719.253 7.7 7.7 0 0 1 .702.313 7.7 7.7 0 0 1 .669.381 7.7 7.7 0 0 1 .617.457 7.7 7.7 0 0 1 .584.508 7.7 7.7 0 0 1 .516.567 7.7 7.7 0 0 1 .466.617 7.7 7.7 0 0 1 .287.457 7.7 7.7 0 0 1 .356.686 7.7 7.7 0 0 1 .27.719 7.7 7.7 0 0 1 .212.736 7.7 7.7 0 0 1 .135.762 7.7 7.7 0 0 1 .06.761 7.7 7.7 0 0 1-.026.779 7.7 7.7 0 0 1-.093.761 7.7 7.7 0 0 1-.169.745 7.7 7.7 0 0 1-.254.736 7.7 7.7 0 0 1-.313.694 7.7 7.7 0 0 1-.39.677 7.7 7.7 0 0 1-.456.617 7.7 7.7 0 0 1-.508.576 7.7 7.7 0 0 1-.567.516 7.7 7.7 0 0 1-.617.465 7.7 7.7 0 0 1-.457.288 7.7 7.7 0 0 1-.677.355 7.7 7.7 0 0 1-.728.28 7.7 7.7 0 0 1-.736.203 7.7 7.7 0 0 1-.762.135 7.7 7.7 0 0 1-.761.06 7.7 7.7 0 0 1-.779-.026 7.7 7.7 0 0 1-.761-.093 7.7 7.7 0 0 1-.745-.17 7.7 7.7 0 0 1-.736-.253 7.7 7.7 0 0 1-.694-.313 7.7 7.7 0 0 1-.668-.39 7.7 7.7 0 0 1-.618-.448 7.7 7.7 0 0 1-.575-.508 7.7 7.7 0 0 1-.525-.575 7.7 7.7 0 0 1-.465-.61 7.7 7.7 0 0 1-.288-.465 7.7 7.7 0 0 1 0-.008 1.653 1.653 0 1 0-2.792 1.768 11 11 0 0 0 14.96 3.918 11 11 0 0 0 4.019-15.036 11.009 11.009 0 0 0-9.367-5.483zm.568 7.912a1.955 1.955 0 0 0-1.227.406l.237.338c.144-.093.296-.177.448-.236a1.422 1.422 0 0 1 .542-.094c.22 0 .398.051.524.161a.525.525 0 0 1 .195.44.66.66 0 0 1-.254.533c-.169.144-.406.203-.736.203h-.38v.423h.372a1.642 1.642 0 0 1 .812.161c.203.102.296.28.296.525a.72.72 0 0 1-.237.575c-.152.136-.406.203-.761.203a2.445 2.445 0 0 1-1.083-.254v.449a1.777 1.777 0 0 0 .507.17c.17.025.364.041.567.041a2.09 2.09 0 0 0 .855-.152 1.058 1.058 0 0 0 .499-.406 1.16 1.16 0 0 0 .16-.61.872.872 0 0 0-.236-.634 1.117 1.117 0 0 0-.702-.304v-.017a1.1 1.1 0 0 0 .592-.313.88.88 0 0 0 .228-.635.905.905 0 0 0-.304-.694c-.203-.186-.508-.28-.914-.28zm3.757 0a1.845 1.845 0 0 0-.906.203 1.455 1.455 0 0 0-.558.533 2.302 2.302 0 0 0-.262.745 4.78 4.78 0 0 0-.085.829c0 .398.068.72.186.981a1.303 1.303 0 0 0 .483.567c.203.127.423.186.676.186.39 0 .686-.11.914-.346a1.337 1.337 0 0 0 .339-.974c0-.38-.102-.676-.313-.88a1.117 1.117 0 0 0-.821-.313 1.1 1.1 0 0 0-.584.136 1.05 1.05 0 0 0-.355.321h-.034c.017-.211.042-.423.084-.609a1.574 1.574 0 0 1 .212-.508 1.04 1.04 0 0 1 .398-.338 1.413 1.413 0 0 1 .634-.135 1.794 1.794 0 0 1 .474.067v-.414a1.075 1.075 0 0 0-.228-.034 3.198 3.198 0 0 0-.254-.017zm-11.085.06L3.692 9.8l.254.322.415-.339.17-.16a1.862 1.862 0 0 0 .168-.144 8.91 8.91 0 0 0-.017.677v2.75h.474V8.97zm2.75 0L6.442 9.8l.254.322.415-.339.17-.16a1.862 1.862 0 0 0 .168-.144 9.012 9.012 0 0 0-.017.296v3.13h.474V8.972zm2.336.904a.355.355 0 0 0-.237.085c-.068.05-.102.144-.102.288 0 .135.034.228.102.287a.338.338 0 0 0 .237.085.372.372 0 0 0 .236-.085c.077-.059.11-.152.11-.287 0-.144-.033-.237-.11-.296a.38.38 0 0 0-.236-.085zm5.542.94c.254 0 .44.076.567.22.127.144.194.338.194.592 0 .313-.076.55-.22.694a.762.762 0 0 1-.558.22.728.728 0 0 1-.474-.144.956.956 0 0 1-.28-.39 1.278 1.278 0 0 1-.084-.473.626.626 0 0 1 .102-.339.888.888 0 0 1 .753-.38zm-5.55 1.413a.355.355 0 0 0-.238.084c-.068.051-.101.153-.101.288 0 .135.033.229.101.288a.338.338 0 0 0 .237.084.372.372 0 0 0 .237-.084c.076-.06.11-.153.11-.288 0-.135-.034-.237-.11-.288a.38.38 0 0 0-.237-.084z" fill="#e6e6e6"/></svg>

<?xml version="1.0" encoding="UTF-8" standalone="no"?>
<svg
   xmlns:dc="http://purl.org/dc/elements/1.1/"
   xmlns:cc="http://creativecommons.org/ns#"
   xmlns:rdf="http://www.w3.org/1999/02/22-rdf-syntax-ns#"
   xmlns:svg="http://www.w3.org/2000/svg"
   xmlns="http://www.w3.org/2000/svg"
   xmlns:sodipodi="http://sodipodi.sourceforge.net/DTD/sodipodi-0.dtd"
   xmlns:inkscape="http://www.inkscape.org/namespaces/inkscape"
   width="24"
   height="24"
   version="1.1"
   id="svg4"
   sodipodi:docname="org.kde.plasma.digitalclock-ng.svg"
   inkscape:version="0.92.4 (5da689c313, 2019-01-14)">
  <metadata
     id="metadata10">
    <rdf:RDF>
      <cc:Work
         rdf:about="">
        <dc:format>image/svg+xml</dc:format>
        <dc:type
           rdf:resource="http://purl.org/dc/dcmitype/StillImage" />
        <dc:title></dc:title>
      </cc:Work>
    </rdf:RDF>
  </metadata>
  <defs
     id="defs8" />
  <sodipodi:namedview
     pagecolor="#ffffff"
     bordercolor="#666666"
     borderopacity="1"
     objecttolerance="10"
     gridtolerance="10"
     guidetolerance="10"
     inkscape:pageopacity="0"
     inkscape:pageshadow="2"
     inkscape:window-width="1138"
     inkscape:window-height="480"
     id="namedview6"
     showgrid="false"
     inkscape:zoom="9.8333333"
     inkscape:cx="1.0677966"
     inkscape:cy="12"
     inkscape:window-x="0"
     inkscape:window-y="25"
     inkscape:window-maximized="0"
     inkscape:current-layer="svg4" />
  <path
     d="M 11.51,1 A 10.966,10.966 0 0 0 6.78,2.007 C 5.723,2.337 5.14,3.387 5.723,4.436 a 1.658,1.658 0 0 0 2.251,0.609 l 0.025,0.042 a 7.7,7.7 0 0 1 0.195,-0.101 7.7,7.7 0 0 1 0.72,-0.28 7.7,7.7 0 0 1 0.735,-0.211 7.7,7.7 0 0 1 0.762,-0.136 7.7,7.7 0 0 1 0.761,-0.05 7.7,7.7 0 0 1 0.77,0.017 7.7,7.7 0 0 1 0.762,0.101 7.7,7.7 0 0 1 0.762,0.17 7.7,7.7 0 0 1 0.719,0.253 7.7,7.7 0 0 1 0.702,0.313 7.7,7.7 0 0 1 0.669,0.381 7.7,7.7 0 0 1 0.617,0.457 7.7,7.7 0 0 1 0.584,0.508 7.7,7.7 0 0 1 0.516,0.567 7.7,7.7 0 0 1 0.466,0.617 7.7,7.7 0 0 1 0.287,0.457 7.7,7.7 0 0 1 0.356,0.686 7.7,7.7 0 0 1 0.27,0.719 7.7,7.7 0 0 1 0.212,0.736 7.7,7.7 0 0 1 0.135,0.762 7.7,7.7 0 0 1 0.06,0.761 7.7,7.7 0 0 1 -0.026,0.779 7.7,7.7 0 0 1 -0.093,0.761 7.7,7.7 0 0 1 -0.169,0.745 7.7,7.7 0 0 1 -0.254,0.736 7.7,7.7 0 0 1 -0.313,0.694 7.7,7.7 0 0 1 -0.39,0.677 7.7,7.7 0 0 1 -0.456,0.617 7.7,7.7 0 0 1 -0.508,0.576 7.7,7.7 0 0 1 -0.567,0.516 7.7,7.7 0 0 1 -0.617,0.465 7.7,7.7 0 0 1 -0.457,0.288 7.7,7.7 0 0 1 -0.677,0.355 7.7,7.7 0 0 1 -0.728,0.28 7.7,7.7 0 0 1 -0.736,0.203 7.7,7.7 0 0 1 -0.762,0.135 7.7,7.7 0 0 1 -0.761,0.06 A 7.7,7.7 0 0 1 10.766,19.675 7.7,7.7 0 0 1 10.005,19.582 7.7,7.7 0 0 1 9.26,19.412 7.7,7.7 0 0 1 8.524,19.159 7.7,7.7 0 0 1 7.83,18.846 7.7,7.7 0 0 1 7.162,18.456 7.7,7.7 0 0 1 6.544,18.008 7.7,7.7 0 0 1 5.969,17.5 7.7,7.7 0 0 1 5.444,16.925 7.7,7.7 0 0 1 4.979,16.315 7.7,7.7 0 0 1 4.691,15.85 a 7.7,7.7 0 0 1 0,-0.008 1.653,1.653 0 1 0 -2.792,1.768 11,11 0 0 0 14.96,3.918 11,11 0 0 0 4.019,-15.036 11.009,11.009 0 0 0 -9.367,-5.483 z m 0.568,7.912 a 1.955,1.955 0 0 0 -1.227,0.406 l 0.237,0.338 C 11.232,9.563 11.384,9.479 11.536,9.42 a 1.422,1.422 0 0 1 0.542,-0.094 c 0.22,0 0.398,0.051 0.524,0.161 a 0.525,0.525 0 0 1 0.195,0.44 0.66,0.66 0 0 1 -0.254,0.533 c -0.169,0.144 -0.406,0.203 -0.736,0.203 h -0.38 v 0.423 h 0.372 a 1.642,1.642 0 0 1 0.812,0.161 c 0.203,0.102 0.296,0.28 0.296,0.525 a 0.72,0.72 0 0 1 -0.237,0.575 c -0.152,0.136 -0.406,0.203 -0.761,0.203 a 2.445,2.445 0 0 1 -1.083,-0.254 v 0.449 a 1.777,1.777 0 0 0 0.507,0.17 c 0.17,0.025 0.364,0.041 0.567,0.041 a 2.09,2.09 0 0 0 0.855,-0.152 1.058,1.058 0 0 0 0.499,-0.406 1.16,1.16 0 0 0 0.16,-0.61 0.872,0.872 0 0 0 -0.236,-0.634 1.117,1.117 0 0 0 -0.702,-0.304 V 10.833 A 1.1,1.1 0 0 0 13.068,10.52 0.88,0.88 0 0 0 13.296,9.885 0.905,0.905 0 0 0 12.992,9.191 C 12.789,9.005 12.484,8.911 12.078,8.911 Z m 3.757,0 a 1.845,1.845 0 0 0 -0.906,0.203 1.455,1.455 0 0 0 -0.558,0.533 2.302,2.302 0 0 0 -0.262,0.745 4.78,4.78 0 0 0 -0.085,0.829 c 0,0.398 0.068,0.72 0.186,0.981 a 1.303,1.303 0 0 0 0.483,0.567 c 0.203,0.127 0.423,0.186 0.676,0.186 0.39,0 0.686,-0.11 0.914,-0.346 a 1.337,1.337 0 0 0 0.339,-0.974 c 0,-0.38 -0.102,-0.676 -0.313,-0.88 a 1.117,1.117 0 0 0 -0.821,-0.313 1.1,1.1 0 0 0 -0.584,0.136 1.05,1.05 0 0 0 -0.355,0.321 h -0.034 c 0.017,-0.211 0.042,-0.423 0.084,-0.609 A 1.574,1.574 0 0 1 14.811,9.783 1.04,1.04 0 0 1 15.209,9.445 1.413,1.413 0 0 1 15.843,9.31 1.794,1.794 0 0 1 16.317,9.377 V 8.963 A 1.075,1.075 0 0 0 16.089,8.929 3.198,3.198 0 0 0 15.835,8.912 Z M 4.75,8.972 3.692,9.8 3.946,10.122 4.361,9.783 4.531,9.623 A 1.862,1.862 0 0 0 4.699,9.479 8.91,8.91 0 0 0 4.682,10.156 v 2.75 H 5.156 V 8.97 Z m 2.75,0 L 6.442,9.8 6.696,10.122 7.111,9.783 7.281,9.623 A 1.862,1.862 0 0 0 7.449,9.479 9.012,9.012 0 0 0 7.432,9.775 v 3.13 H 7.906 V 8.972 Z M 9.836,9.876 A 0.355,0.355 0 0 0 9.599,9.961 c -0.068,0.05 -0.102,0.144 -0.102,0.288 0,0.135 0.034,0.228 0.102,0.287 a 0.338,0.338 0 0 0 0.237,0.085 0.372,0.372 0 0 0 0.236,-0.085 c 0.077,-0.059 0.11,-0.152 0.11,-0.287 0,-0.144 -0.033,-0.237 -0.11,-0.296 A 0.38,0.38 0 0 0 9.836,9.868 Z m 5.542,0.94 c 0.254,0 0.44,0.076 0.567,0.22 0.127,0.144 0.194,0.338 0.194,0.592 0,0.313 -0.076,0.55 -0.22,0.694 a 0.762,0.762 0 0 1 -0.558,0.22 0.728,0.728 0 0 1 -0.474,-0.144 0.956,0.956 0 0 1 -0.28,-0.39 1.278,1.278 0 0 1 -0.084,-0.473 0.626,0.626 0 0 1 0.102,-0.339 0.888,0.888 0 0 1 0.753,-0.38 z m -5.55,1.413 A 0.355,0.355 0 0 0 9.59,12.313 c -0.068,0.051 -0.101,0.153 -0.101,0.288 0,0.135 0.033,0.229 0.101,0.288 a 0.338,0.338 0 0 0 0.237,0.084 0.372,0.372 0 0 0 0.237,-0.084 c 0.076,-0.06 0.11,-0.153 0.11,-0.288 0,-0.135 -0.034,-0.237 -0.11,-0.288 A 0.38,0.38 0 0 0 9.827,12.229 Z"
     id="path2"
     inkscape:connector-curvature="0"
     style="fill:#e6e6e6" />
</svg>
